X: 35991
T: Saturday
R: waltz
M: 3/4
K: Dmajor
A2|d3 A FA|dc de fd|e3 d ef|g4 ed|c3 A cf|g2 f2 e2|
f3 e dB|A4 A2|d3 A FA|dc de fd|e3 d ef|g4 ed|
c3 A cf|g2 f2 e2|d3 e dc|d4||d2|B3 G Bd|e2 d2 B2|A3 F Ad|
f4 ed|c3 A cf|g2 f2 e2|f3 e dB|A4 A2|B3 G Bd|e2 d2 B2|
A3 F Ad|f4 ed|c3 A cf|g2 f2 e2|d3 e dc|d4||

